icon-svg/skoda.svg

<svg xmlns="http://www.w3.org/2000/svg" fill="#44739e" viewBox="0 0 24 24"><path d="M12.384 13.807a.99.99 0 1 0 .99-.99.991.991 0 0 0-.99.99m1.82 0a.83.83 0 1 1-.83-.83.831.831 0 0 1 .826.83zm-1.282-1.417a1.467 1.467 0 0 0 .213 2.919 1.55 1.55 0 0 0 .213-.015 1.468 1.468 0 1 0-.426-2.9zm.213 2.7a1.247 1.247 0 0 1-.181-2.481 1.2 1.2 0 0 1 .181-.013 1.247 1.247 0 0 1 .181 2.481 1.2 1.2 0 0 1-.181.012zm4.515 1.035a3.42 3.42 0 0 0-1.524-.734c-.052-.01-.078.01-.078.064v.03a.333.333 0 0 1-.288.312h-.38a.5.5 0 0 1-.488-.688c1.374-4.9-.162-7.93-2.1-9.626-.526-.46-.574-.486-1.1-.466a6.93 6.93 0 0 0-1.308.166c-.08.02-.148.084-.042.172a9.153 9.153 0 0 1 2.96 4.53c.022.078-.024.072-.084.076a1 1 0 0 1-.94-.536A13.73 13.73 0 0 0 8.46 6.2c-.108-.064-.126-.064-.208-.016A6.04 6.04 0 0 0 6.984 7.2c-.072.078-.054.114.026.156a12.71 12.71 0 0 1 3.856 3.314c.086.108.092.158.044.188a1.181 1.181 0 0 1-1.2-.146A15.48 15.48 0 0 0 6 9c-.112-.032-.132-.026-.178.07a7.58 7.58 0 0 0-.636 1.842c-.012.08-.02.086.054.1 2.888.586 4.472 2.17 4.652 4.288a.617.617 0 0 1-.8.59c-.448-.142-.884-.3-1.334-.444a.42.42 0 0 0-.148-.022H5.75c-.082 0-.132.052-.05.156a12.6 12.6 0 0 1 1.072 1.484.142.142 0 0 0 .14.08H7.6a.455.455 0 0 0 .248-.068c.248-.146.5-.282.744-.428a.445.445 0 0 1 .238-.074h6.926a.337.337 0 0 1 .292.312v.05c0 .054.026.074.078.064a3.52 3.52 0 0 0 1.524-.774c.04-.033.04-.067 0-.101m-3.337-1.406a1.46 1.46 0 0 1-.965.575 1.55 1.55 0 0 1-.213.015 1.468 1.468 0 1 1 1.178-.59m4.023 1.187-.027-.029H18.3a4.29 4.29 0 0 0-2.245-1.1.287.287 0 0 0-.327.237.2.2 0 0 0 0 .046v.3c0 .047-.038.1-.07.1h-.2a.126.126 0 0 1-.108-.053.374.374 0 0 1-.037-.293 13.6 13.6 0 0 0 .617-3.679 8.12 8.12 0 0 0-.409-2.8l-.021-.057a7.5 7.5 0 0 0-2.454-3.668.718.718 0 0 0-.454-.2 6.7 6.7 0 0 0-.5-.018 7.44 7.44 0 0 0-2.124.31c-.173.053-.227.147-.241.216a.323.323 0 0 0 .134.3 10.06 10.06 0 0 1 2.083 2.327 1.248 1.248 0 0 1-.726-.4 11.9 11.9 0 0 0-2.4-1.75.442.442 0 0 0-.444-.025 6.72 6.72 0 0 0-1.88 1.578.249.249 0 0 0-.07.211.279.279 0 0 0 .16.191A13.6 13.6 0 0 1 9.1 9.419a1.06 1.06 0 0 1-.744-.186 10.5 10.5 0 0 0-2.3-.869.388.388 0 0 0-.444.164 6.97 6.97 0 0 0-.813 2.39.379.379 0 0 0 .319.434c.973.17 3.934.689 4.389 3.834a.254.254 0 0 1-.093.242.278.278 0 0 1-.292.008l-.653-.306-.652-.306a.434.434 0 0 0-.187-.049H5.572a.39.39 0 0 0-.373.218.4.4 0 0 0 .083.427 12.7 12.7 0 0 1 1.324 1.819.232.232 0 0 0 .218.124h.9a.4.4 0 0 0 .212-.058l.422-.248.425-.249a.2.2 0 0 1 .108-.017h6.765c.012 0 .074 0 .074.06v.332a.287.287 0 0 0 .288.286.3.3 0 0 0 .044 0 4.284 4.284 0 0 0 2.262-1.111.318.318 0 0 0 .016-.449zm-.14.318a4.1 4.1 0 0 1-2.165 1.064.108.108 0 0 1-.088-.025.1.1 0 0 1-.037-.08v-.332a.242.242 0 0 0-.254-.24H8.878a.34.34 0 0 0-.192.043l-.423.247-.424.249a.21.21 0 0 1-.119.033h-.9a.057.057 0 0 1-.063-.036 12.85 12.85 0 0 0-1.34-1.847.222.222 0 0 1-.054-.235.217.217 0 0 1 .209-.112h2.052a.27.27 0 0 1 .11.032l.653.306.653.306a.454.454 0 0 0 .475-.027.43.43 0 0 0 .164-.412 4.176 4.176 0 0 0-1.888-3.038 7.1 7.1 0 0 0-2.648-.948.2.2 0 0 1-.172-.229 6.8 6.8 0 0 1 .791-2.327.213.213 0 0 1 .243-.08 10.3 10.3 0 0 1 2.265.855c.5.26.82.294 1.038.111l.079-.067-.077-.067a13.73 13.73 0 0 0-2.641-1.876c-.046-.025-.065-.05-.068-.065s.017-.047.029-.061a6.57 6.57 0 0 1 1.841-1.529.255.255 0 0 1 .267.026A11.73 11.73 0 0 1 11.1 7.586a1.3 1.3 0 0 0 1.017.446l.139-.013-.07-.121a9.98 9.98 0 0 0-2.2-2.508.168.168 0 0 1-.075-.13c.006-.031.049-.06.117-.081a7.29 7.29 0 0 1 2.072-.3c.162 0 .3 0 .483.018a.532.532 0 0 1 .347.149 7.257 7.257 0 0 1 2.4 3.593l.022.063a7.86 7.86 0 0 1 .4 2.748 13.46 13.46 0 0 1-.611 3.63.55.55 0 0 0 .067.448.306.306 0 0 0 .247.125h.2a.276.276 0 0 0 .25-.282v-.321a.108.108 0 0 1 .123-.09 4.106 4.106 0 0 1 2.172 1.064l.017.014a.143.143 0 0 1 .028.089.136.136 0 0 1-.045.097zm-.274-10.145A8.372 8.372 0 1 0 20.374 12a8.32 8.32 0 0 0-2.452-5.921M12 20.111a8.112 8.112 0 1 1 5.738-2.376A8.06 8.06 0 0 1 12 20.111m7.034-15.194A9.914 9.914 0 0 0 12 2.018h-.037a9.982 9.982 0 0 0-7 17.064 9.907 9.907 0 0 0 7.03 2.9h.037a9.983 9.983 0 0 0 7-17.065zM12 20.789A8.792 8.792 0 0 1 5.783 5.78a8.7922 8.7922 0 0 1 12.434 12.434A8.727 8.727 0 0 1 12 20.789M19.047 4.9A10 10 0 1 0 12 22h.037a10 10 0 0 0 7.01-17.1M12 21.982A9.983 9.983 0 0 1 4.918 4.965a9.92 9.92 0 0 1 7.048-2.947H12a9.982 9.982 0 0 1 .031 19.964z"/></svg>

<?xml version="1.0" encoding="UTF-8"?>
<svg width="24px" fill="#44739e" height="24px" viewBox="0 0 24 24" version="1.1" xmlns="http://www.w3.org/2000/svg" xmlns:xlink="http://www.w3.org/1999/xlink">
            <path d="m 12.384,13.807 a 0.99,0.99 0 1 0 0.99,-0.99 0.991,0.991 0 0 0 -0.99,0.99 z m 1.82,0 a 0.83,0.83 0 1 1 -0.83,-0.83 0.831,0.831 0 0 1 0.826,0.83 z M 12.922,12.39 a 1.467,1.467 0 0 0 0.213,2.919 1.547,1.547 0 0 0 0.213,-0.015 1.468,1.468 0 1 0 -0.426,-2.9 z m 0.213,2.7 a 1.247,1.247 0 0 1 -0.181,-2.481 1.234,1.234 0 0 1 0.181,-0.013 1.247,1.247 0 0 1 0.181,2.481 1.234,1.234 0 0 1 -0.181,0.012 z m 4.515,1.035 a 3.418,3.418 0 0 0 -1.524,-0.734 c -0.052,-0.01 -0.078,0.01 -0.078,0.064 v 0.03 a 0.333,0.333 0 0 1 -0.288,0.312 h -0.38 a 0.5,0.5 0 0 1 -0.488,-0.688 c 1.374,-4.9 -0.162,-7.93 -2.1,-9.626 -0.526,-0.46 -0.574,-0.486 -1.1,-0.466 a 6.928,6.928 0 0 0 -1.308,0.166 c -0.08,0.02 -0.148,0.084 -0.042,0.172 a 9.153,9.153 0 0 1 2.96,4.53 c 0.022,0.078 -0.024,0.072 -0.084,0.076 A 1,1 0 0 1 12.278,9.425 13.731,13.731 0 0 0 8.46,6.2 C 8.352,6.136 8.334,6.136 8.252,6.184 A 6.044,6.044 0 0 0 6.984,7.2 C 6.912,7.278 6.93,7.314 7.01,7.356 a 12.712,12.712 0 0 1 3.856,3.314 c 0.086,0.108 0.092,0.158 0.044,0.188 A 1.181,1.181 0 0 1 9.71,10.712 15.477,15.477 0 0 0 6,9 C 5.888,8.968 5.868,8.974 5.822,9.07 a 7.577,7.577 0 0 0 -0.636,1.842 c -0.012,0.08 -0.02,0.086 0.054,0.1 2.888,0.586 4.472,2.17 4.652,4.288 a 0.617,0.617 0 0 1 -0.8,0.59 C 8.644,15.748 8.208,15.59 7.758,15.446 A 0.416,0.416 0 0 0 7.61,15.424 H 5.75 c -0.082,0 -0.132,0.052 -0.05,0.156 a 12.621,12.621 0 0 1 1.072,1.484 0.142,0.142 0 0 0 0.14,0.08 H 7.6 a 0.455,0.455 0 0 0 0.248,-0.068 c 0.248,-0.146 0.5,-0.282 0.744,-0.428 A 0.445,0.445 0 0 1 8.83,16.574 h 6.926 a 0.337,0.337 0 0 1 0.292,0.312 v 0.05 c 0,0.054 0.026,0.074 0.078,0.064 a 3.52,3.52 0 0 0 1.524,-0.774 c 0.04,-0.033 0.04,-0.067 0,-0.101 z m -3.337,-1.406 a 1.46,1.46 0 0 1 -0.965,0.575 1.547,1.547 0 0 1 -0.213,0.015 1.468,1.468 0 1 1 1.178,-0.59 z m 4.023,1.187 -0.027,-0.029 H 18.3 a 4.29,4.29 0 0 0 -2.245,-1.1 0.287,0.287 0 0 0 -0.327,0.237 0.2,0.2 0 0 0 0,0.046 v 0.3 c 0,0.047 -0.038,0.1 -0.07,0.1 h -0.2 A 0.126,0.126 0 0 1 15.35,15.407 0.374,0.374 0 0 1 15.313,15.114 13.6,13.6 0 0 0 15.93,11.435 8.119,8.119 0 0 0 15.521,8.635 L 15.5,8.578 A 7.5,7.5 0 0 0 13.046,4.91 0.718,0.718 0 0 0 12.592,4.71 C 12.407,4.697 12.263,4.692 12.092,4.692 A 7.437,7.437 0 0 0 9.968,5.002 C 9.795,5.055 9.741,5.149 9.727,5.218 a 0.323,0.323 0 0 0 0.134,0.3 10.061,10.061 0 0 1 2.083,2.327 1.248,1.248 0 0 1 -0.726,-0.4 11.9,11.9 0 0 0 -2.4,-1.75 A 0.442,0.442 0 0 0 8.374,5.67 6.722,6.722 0 0 0 6.494,7.248 0.249,0.249 0 0 0 6.424,7.459 0.279,0.279 0 0 0 6.584,7.65 13.607,13.607 0 0 1 9.1,9.419 1.061,1.061 0 0 1 8.356,9.233 10.488,10.488 0 0 0 6.056,8.364 0.388,0.388 0 0 0 5.612,8.528 a 6.972,6.972 0 0 0 -0.813,2.39 0.379,0.379 0 0 0 0.319,0.434 c 0.973,0.17 3.934,0.689 4.389,3.834 A 0.254,0.254 0 0 1 9.414,15.428 0.278,0.278 0 0 1 9.122,15.436 L 8.469,15.13 7.817,14.824 A 0.434,0.434 0 0 0 7.63,14.775 H 5.572 a 0.39,0.39 0 0 0 -0.373,0.218 0.4,0.4 0 0 0 0.083,0.427 12.689,12.689 0 0 1 1.324,1.819 0.232,0.232 0 0 0 0.218,0.124 h 0.9 a 0.4,0.4 0 0 0 0.212,-0.058 l 0.422,-0.248 0.425,-0.249 a 0.2,0.2 0 0 1 0.108,-0.017 h 6.765 c 0.012,0 0.074,0 0.074,0.06 v 0.332 a 0.287,0.287 0 0 0 0.288,0.286 0.315,0.315 0 0 0 0.044,0 4.284,4.284 0 0 0 2.262,-1.111 0.318,0.318 0 0 0 0.016,-0.449 z m -0.14,0.318 a 4.1,4.1 0 0 1 -2.165,1.064 0.108,0.108 0 0 1 -0.088,-0.025 0.1,0.1 0 0 1 -0.037,-0.08 v -0.332 a 0.242,0.242 0 0 0 -0.254,-0.24 H 8.878 A 0.341,0.341 0 0 0 8.686,16.654 L 8.263,16.901 7.839,17.15 A 0.211,0.211 0 0 1 7.72,17.183 H 6.82 A 0.057,0.057 0 0 1 6.757,17.147 12.851,12.851 0 0 0 5.417,15.3 0.222,0.222 0 0 1 5.363,15.065 0.217,0.217 0 0 1 5.572,14.953 h 2.052 a 0.272,0.272 0 0 1 0.11,0.032 l 0.653,0.306 0.653,0.306 A 0.454,0.454 0 0 0 9.515,15.57 0.43,0.43 0 0 0 9.679,15.158 4.176,4.176 0 0 0 7.791,12.12 7.1,7.1 0 0 0 5.143,11.172 0.2,0.2 0 0 1 4.971,10.943 6.8,6.8 0 0 1 5.762,8.616 0.213,0.213 0 0 1 6.005,8.536 10.305,10.305 0 0 1 8.27,9.391 c 0.5,0.26 0.82,0.294 1.038,0.111 L 9.387,9.435 9.31,9.368 A 13.725,13.725 0 0 0 6.669,7.492 C 6.623,7.467 6.604,7.442 6.601,7.427 6.598,7.412 6.618,7.38 6.63,7.366 A 6.566,6.566 0 0 1 8.471,5.837 0.255,0.255 0 0 1 8.738,5.863 11.733,11.733 0 0 1 11.1,7.586 1.3,1.3 0 0 0 12.117,8.032 L 12.256,8.019 12.186,7.898 A 9.984,9.984 0 0 0 9.986,5.39 0.168,0.168 0 0 1 9.911,5.26 C 9.917,5.229 9.96,5.2 10.028,5.179 a 7.285,7.285 0 0 1 2.072,-0.3 c 0.162,0 0.3,0 0.483,0.018 a 0.532,0.532 0 0 1 0.347,0.149 7.257,7.257 0 0 1 2.4,3.593 l 0.022,0.063 a 7.855,7.855 0 0 1 0.4,2.748 13.464,13.464 0 0 1 -0.611,3.63 0.55,0.55 0 0 0 0.067,0.448 0.306,0.306 0 0 0 0.247,0.125 h 0.2 a 0.276,0.276 0 0 0 0.25,-0.282 V 15.05 a 0.108,0.108 0 0 1 0.123,-0.09 4.106,4.106 0 0 1 2.172,1.064 l 0.017,0.014 a 0.143,0.143 0 0 1 0.028,0.089 0.136,0.136 0 0 1 -0.045,0.097 z M 17.922,6.079 A 8.372,8.372 0 1 0 20.374,12 8.32,8.32 0 0 0 17.922,6.079 Z M 12,20.111 A 8.112,8.112 0 1 1 17.738,17.735 8.059,8.059 0 0 1 12,20.111 Z M 19.034,4.917 A 9.914,9.914 0 0 0 12,2.018 h -0.037 a 9.982,9.982 0 0 0 -7,17.064 9.907,9.907 0 0 0 7.03,2.9 h 0.037 a 9.983,9.983 0 0 0 7,-17.065 z M 12,20.789 A 8.792,8.792 0 0 1 5.783,5.78 8.7921657,8.7921657 0 0 1 18.217,18.214 8.727,8.727 0 0 1 12,20.789 Z M 11.966,1.999 v 0 z M 19.047,4.9 A 10,10 0 1 0 12,22 h 0.037 A 10,10 0 0 0 19.047,4.9 Z M 12,21.982 A 9.983,9.983 0 0 1 4.918,4.965 9.919,9.919 0 0 1 11.966,2.018 H 12 a 9.982012,9.982012 0 0 1 0.031,19.964 z"/>
 
</svg>
